X: 11
T: Henrico
R: reel
M: 2/4
L: 1/16
Z: 2010 John Chambers <jc:trillian.mit.edu>
B: 19th century tune book collected by W.A. Cocks.
F: http://www.asaplive.com/archive/browse_by_collection.asp
N: The asaplive.com web site is complex, and links to its files don't usually work.
K: D
A2 |\
d2fe dcdB | A2A2 F2F2 | d2fe defg | e2a2 a4 |\
d2fe dcdB | A2A2 F2F2 | d2ge fdec | d2d2d2 :|
|: fg |\
a2ag f2fe | d2de fdef | gagf efed | cdcB A4 |\
A2d2 cecA | A2e2 cecA | A2d2 cecA | d2d2d2 :|


%%sep 5 1 500

